packages/ui/public/icons/tipped-star-medium-icon.svg

<svg width="22" height="22" viewBox="0 0 22 22" fill="none" xmlns="http://www.w3.org/2000/svg">
  <path d="M9.32804 7.17395L10.8671 0L12.4061 7.17395C12.6034 8.08893 13.3168 8.80632 14.2305 9.00087L21.3945 10.5421L14.2305 12.0832C13.3168 12.2808 12.6004 12.9952 12.4061 13.9102L10.8671 21.0841L9.32804 13.9102C9.13073 12.9952 8.41736 12.2778 7.50365 12.0832L0.339664 10.5421L7.50365 9.00087C8.41736 8.80328 9.13376 8.08893 9.32804 7.17395Z" fill="#BF7AF0" />
</svg>

<svg width="22" height="22" fill="none" xmlns="http://www.w3.org/2000/svg"><path d="M9.328 7.174 10.868 0l1.538 7.174c.197.915.91 1.632 1.824 1.827l7.165 1.541-7.165 1.541a2.378 2.378 0 0 0-1.824 1.827l-1.539 7.174-1.539-7.174a2.378 2.378 0 0 0-1.824-1.827L.34 10.543 7.504 9a2.378 2.378 0 0 0 1.824-1.827Z" fill="#BF7AF0"/></svg>
